X:1
T:Reformation
T:C Major              Hezekiah Moors, 1809
T:Transcribed from Province Harmony, 1809.
T:Isaac Watts, 1719 (Psalm 126, Part 2)                    86. 86. (C. M.)
%%score [ 1 2 3 4 ]
L:1/8
Q:1/4=120
M:2/2
K:C
V:1 treble nm="Tr." snm="Tr."
V:2 treble nm="C." snm="C."
V:3 treble-8 nm="T." snm="T."
V:4 bass nm="B." snm="B."
V:1
"_1. When God reveal'd his gracious name, And chang'd my mournful state, My rapture seem'd a pleasing dream, The grace appear'd so great.\n2. Great is the work, my neighbors cried, And owned the power divine;     Great  is the work, my heart replied, And be  the  glory  thine." G4 G2 G2 | %1
 AB c2 B2 A2 | B6 B2 | c2 cB A2 G2 | G8- | G4 c4 | c2 c2 c2 A2 | B2 B2 B2 c2 | d2 ed c2 B2 | c8 |: %10
 z8 | z8 | %12
 z4 z2"_1. The world beheld the glorious change, And did thy hand confess;         My tongue broke out in  unknown  strains, ______________________________   My\n2. The Lord can clear the darkest skies,  Can give us day for night;            Make  drops  of  sacred   sorrow     rise, _________________________________  Make" EF | %13
 G2 G2 G2 GF | E2 E2 E2 G2 | A2 G2 A2 B2 | c6 d2 | e2 de fe d2 | c2 B2 (c4 | cBAB c2 G2 | %20
 E2 G2 c2) e2 | %21
"_1. tongue broke out in unknown strains, And sung _____ sur – pri – sing  grace.\n2. drops  of   sacred    sor – row   rise   To    ri       –        vers    of     de  – light." e2 e>d c2 c2 | %22
 d2 d>c B2 B2 | (c3 B c2) G2 | A4 G4 | G8 :| %26
V:2
 G4 E2 E2 | A2 A2 G2 ^F2 | G6 G2 | E2 G2 F2 D2 | E8- | E4 E4 | C2 C2 C2 E2 | G2 G2 G2 G2 | %8
 A2 GA G2 G2 | E8 |: z8 | z8 | z8 | %13
 z4 z2"_1. The world beheld the glorious change, And did thy hand confess;           My  tongue  broke  out  in  unknown  strains, ____________   My\n2. The Lord can clear the darkest skies,    Can give us day for night;            Make  drops  of     sacred      sorrow   rise, _______________  Make" CD | %14
 E2 E2 E2 ED | C2 C2 C2 D2 | E2 C2 E2 G2 | G6 G2 | G2 G2 G2 E2 | F2 A2 (G4 | GFEA G2) G2 | %21
 G2 E2 F2 F2 | F2 A2 G2 G2 | (E3 D C2) E2 | F4 D4 | E8 :| %26
V:3
"_1. When God reveal'd his gracious name, And chang'd my mournful state, My rapture seem'd a pleasing dream, The grace appear'd so great.                            The\n2. Great is the work, my neighbors cried, And owned the power divine;     Great  is the work, my heart replied, And be  the  glory  thine.                                    The" c4 c2 c2 | %1
 c2 c2 d2 d2 | d6 d2 | e2 ed c2 B2 | c8- | c4 c4 | e2 e2 e2 c2 | d2 d2 d2 e2 | f2 gf e2 d2 | c8 |: %10
 z8 | z4 z2 EF | %12
"_1. world beheld the glorious change, And did thy hand confess; My tongue broke out in unknown strains, _______________________________________________   My\n2. Lord  can clear the darkest skies,  Can give us day for night;   Make  drops  of  sacred   sorrow  rise, __________________________________________________  Make" G2 G2 G2 GF | %13
 E2 E2 E2 G2 | A2 G2 A2 B2 | c6 d2 | e2 de fe d2 | c2 B2 (c4 | cBAB c2 G2 | A2 F2 G2 E2 | C6) G2 | %21
"_1. tongue broke out in unknown strains, And sung _____ sur – pri – sing  grace.\n2. drops  of   sacred    sor – row   rise   To    ri       –        vers    of     de  – light." c2 c2 A2 A2 | %22
 d2 d2 B2 G2 | (c3 d e2) c2 | d4 d4 | c8 :| %26
V:4
 C,4 C,2 C,2 | F,2 F,2 D,2 D,2 | G,6 G,2 | C,2 C,2 F,2 G,2 | C,8- | C,4 C4 | A,2 A,2 A,2 C2 | %7
 G,2 G,2 G,2 E,2 | D,2 E,F, G,2 G,2 | C,8 |: %10
 z4"_1. The world beheld the\n2. The Lord can clear the" C,4 | G,2 G,2 G,2 G,F, | %12
"_1. glorious change, And did thy hand confess; My    tongue  broke  out  in    unknown  strains, ________________________________________________________   My\n2.  darkest skies,     Can give us  day for night; Make drops       of    sacred     sorrow     rise, __________________________________________________________  Make" E,2 E,2 E,2 E,D, | %13
 C,2 C,2 C,2 CB, | A,6 G,2 | (F,2 E,2 F,2) D,2 | C,2 C,2 C,2 G,,2 | (C,8 | C,2 D,2 E,2 C,E, | %19
 D,4 E,2 G,2 | C,6) C,2 | C,2 C,2 F,2 F,2 | D,2 D,2 G,2 E,2 | (A,3 B, C2) C2 | F,4 G,4 | C,8 :| %26

